X:800
T:A Yowe Cam to Wir Door Yarmin
S:Forgotten
Z:Nigel Gatherer
M:4/4
L:1/4
K:D
z | F2 EF DE F2 | AA F2 AA F2 | F2 EF DE F2 | dBcA B3 :|
c | d2 ed c2 A2 | d2 Bd c2 A2 | defg  a2 e2 | dBcA B3 :|
<end>
<start>
